X:1
T:This Is Children’s Day
T:This Is Children’s Day
T:A. F. Myers
T:Laura Hopkins, 1897, alt.
T:Public Domain Courtesy of the Cyber Hymnal™
C:A. F. Myers
Z:Public Domain
Z:Courtesy of the Cyber Hymnal™
%%score 1 ( 2 3 )
L:1/8
Q:1/4=85
M:2/4
K:C
V:1 treble 
V:2 bass 
V:3 bass 
V:1
 [EG][EG] [FA][FA] | [EG][EG] [CE]2 | [EG][EG] [Ec][Ec] | [GB][FA] [EG]2 | [EG][EG] [FA][FA] | %5
w: 1.~Here a- gain our|friends we meet,|Bring- ing flow- ers|rich and sweet,|Lay- ing them at|
w: 2.~Glean- ers all and|glad are we,|Faith- ful toil- ers|full of glee,|Bring- ing hearts and|
w: 3.~As these flowers of|beau- teous hue,|May our lives be|pure and true,|Frag- rant act- ions|
 [EG][EG] [CE]2 | [EG][Gc] [FB][Fd] | [Ec]4 ||"^Refrain" [Fc][Fc] [Fc][Fc] | [FB][FA] [EG]2 | %10
w: Je- sus’ feet,|On this child- ren’s|day.|||
w: songs to Thee,|On this child- ren’s|day.|This is hap- py|child- ren’s day,|
w: may we do,|From this child- ren’s|day.|||
 [FG][FB] [FB]2 | [EG][Ec] [Ec]2 | [Fc][Fc] [Fc][Fc] | [FB][FA] [EG]2 | [Gc][^Fc] [=FB][FB] | %15
w: |||||
w: Child- ren’s day,|child- ren’s day;|Hear the brook and|foun- tain say,|“This is child- ren’s|
w: |||||
 [Ec]4 |] %16
w: |
w: day.”|
w: |
V:2
 [C,C][C,C] [F,C][F,C] | [C,C][C,C] [C,G,]2 | [C,C][C,C] [C,G,][C,G,] | [C,C][C,C] [C,C]2 | %4
 [C,C][C,C] [F,C][F,C] | [C,C][C,C] [C,G,]2 | [C,C][E,C] [G,D][G,B,] | [C,C]4 || %8
 [F,A,][F,A,] [F,A,][F,A,] | [F,B,][F,C] [C,C]2 | [G,B,][G,D] [G,D]2 | [C,C][C,G,] [C,G,]2 | %12
 [F,A,][F,A,] [F,A,][F,A,] | [F,B,][F,C] [C,C]2 | [E,C][A,D] [G,D]G, | [C,G,]4 |] %16
V:3
 x4 | x4 | x4 | x4 | x4 | x4 | x4 | x4 || x4 | x4 | x4 | x4 | x4 | x4 | x3 G, | x4 |] %16

